usr/share/icons/biglinux-icons-material/scalable/mimetypes/application-x-macbinary.svg

<svg width="24" height="24" viewBox="0 0 24 24" fill="none" xmlns="http://www.w3.org/2000/svg">
<rect x="1" y="1" width="22" height="22" rx="6.6" fill="url(#paint0_radial_21_216)"/>
<path fill-rule="evenodd" clip-rule="evenodd" d="M4.53333 6C4.23787 6 4 6.23787 4 6.53333V17.2C4 17.4955 4.23787 17.7333 4.53333 17.7333H19.4667C19.7621 17.7333 20 17.4955 20 17.2V6.53333C20 6.23787 19.7621 6 19.4667 6H4.53333ZM15.2 6.53333C15.3414 6.53333 15.4771 6.58952 15.5771 6.68954C15.6771 6.78956 15.7333 6.92522 15.7333 7.06667C15.7333 7.20812 15.6771 7.34377 15.5771 7.44379C15.4771 7.54381 15.3414 7.6 15.2 7.6C15.0586 7.6 14.9229 7.54381 14.8229 7.44379C14.7229 7.34377 14.6667 7.20812 14.6667 7.06667C14.6667 6.92522 14.7229 6.78956 14.8229 6.68954C14.9229 6.58952 15.0586 6.53333 15.2 6.53333ZM16.8 6.53333C16.9414 6.53333 17.0771 6.58952 17.1771 6.68954C17.2771 6.78956 17.3333 6.92522 17.3333 7.06667C17.3333 7.20812 17.2771 7.34377 17.1771 7.44379C17.0771 7.54381 16.9414 7.6 16.8 7.6C16.6586 7.6 16.5229 7.54381 16.4229 7.44379C16.3229 7.34377 16.2667 7.20812 16.2667 7.06667C16.2667 6.92522 16.3229 6.78956 16.4229 6.68954C16.5229 6.58952 16.6586 6.53333 16.8 6.53333ZM18.4 6.53333C18.5414 6.53333 18.6771 6.58952 18.7771 6.68954C18.8771 6.78956 18.9333 6.92522 18.9333 7.06667C18.9333 7.20812 18.8771 7.34377 18.7771 7.44379C18.6771 7.54381 18.5414 7.6 18.4 7.6C18.2586 7.6 18.1229 7.54381 18.0229 7.44379C17.9229 7.34377 17.8667 7.20812 17.8667 7.06667C17.8667 6.92522 17.9229 6.78956 18.0229 6.68954C18.1229 6.58952 18.2586 6.53333 18.4 6.53333ZM4.53333 8.13333H7.73333V17.2H4.53333V8.13333ZM8.26667 8.13333H19.4667V17.2H8.26667V8.13333Z" fill="#5F656D"/>
<path d="M11.6646 15.6H12.3703L13.1416 14.1594C13.2798 13.8974 13.4181 13.6209 13.5709 13.3008H13.6C13.7746 13.6209 13.9201 13.8974 14.0584 14.1594L14.8442 15.6H15.5863L14.0292 12.8788L15.4844 10.2667H14.7787L14.0656 11.6273C13.9346 11.8747 13.8328 12.1003 13.6873 12.4059H13.6582C13.4835 12.1003 13.3744 11.8747 13.2362 11.6273L12.5085 10.2667H11.7664L13.2216 12.8424L11.6646 15.6Z" fill="#5F656D"/>
<defs>
<radialGradient id="paint0_radial_21_216" cx="0" cy="0" r="1" gradientUnits="userSpaceOnUse" gradientTransform="translate(17.5 1) rotate(116.565) scale(24.5967)">
<stop stop-color="#F4F4F4"/>
<stop offset="1" stop-color="#BBBBBB"/>
</radialGradient>
</defs>
</svg>

<svg xmlns="http://www.w3.org/2000/svg" width="24" height="24" fill="none"><rect width="22" height="22" x="1" y="1" fill="url(#a)" rx="6.6"/><path fill="#5F656D" fill-rule="evenodd" d="M4.533 6A.532.532 0 0 0 4 6.533V17.2c0 .296.238.533.533.533h14.934A.532.532 0 0 0 20 17.2V6.533A.532.532 0 0 0 19.467 6H4.533Zm10.667.533a.533.533 0 1 1 0 1.067.533.533 0 0 1 0-1.067Zm1.6 0a.533.533 0 1 1 0 1.067.533.533 0 0 1 0-1.067Zm1.6 0a.533.533 0 1 1 0 1.067.533.533 0 0 1 0-1.067Zm-13.867 1.6h3.2V17.2h-3.2V8.133Zm3.734 0h11.2V17.2h-11.2V8.133Z" clip-rule="evenodd"/><path fill="#5F656D" d="M11.665 15.6h.705l.772-1.44c.138-.263.276-.54.429-.86h.029c.175.32.32.597.458.86l.786 1.44h.742l-1.557-2.721 1.455-2.612h-.705l-.713 1.36c-.131.248-.233.473-.379.779h-.029c-.175-.306-.284-.531-.422-.779l-.728-1.36h-.742l1.456 2.575-1.557 2.758Z"/><defs><radialGradient id="a" cx="0" cy="0" r="1" gradientTransform="rotate(116.565 8.441 5.908) scale(24.5967)" gradientUnits="userSpaceOnUse"><stop stop-color="#F4F4F4"/><stop offset="1" stop-color="#BBB"/></radialGradient></defs></svg>
